X: 1
T: Eddie Moloney's
M: 4/4
L: 1/8
R: reel
K: Gmaj
G2DG EGDG|EAAG EA~A2|GBdg e2dB|1 dgge dBAF:|2 d2ge dega||
bgaf gedg|ea~a2 ea~a2|bg~g2 afge|1 d2ge dega:|2 dgge dBAF||
